X:2255
T:Gladstone
O:england
C:James Scott Skinner
R:reel
D:Altan: Island Angel
M:C|
K:A
ed|:cAdB efga|ABcA BE~E2|cAdB efga|1 edcB A2ed:|2 edcB Aefg||
afba geag|fdaf eAce|dBed cAdc|~B3c defg|
aA~A2 cAce|aAgA fAec|defd ceaf|ecBc A2||


